X: 1924
T: Arran Ceilidh, The
R: reel
M: 4/4
K: Gmajor
ge|dG G2 BGAB|DEGB AGAB|dB B2 ed (3Bcd|edef g3e|
dG G2 BGAB|DEGB AGAB|dB B2 ed (3Bcd|edef g2 fg||
e3g edBe|dedB AGAB|dedB AGAB|DEGB AGgf|
e3g edBe|dedB AGAB|dB B2 ed (3Bcd|edef g3f|
e3g edBe|dedB AGAB|D3B AGAB|DG G2 BGgf|
e3g edBe|dedB AGAB|dB B2 ed (3Bcd|edef g3e||

